X: 1
T: Dillon's Fancy
M: 4/4
L: 1/8
R: reel
K: Gmaj
DGGD ~G3A|Bdgd egdc|BDGB DGBG|A2BG AGEG|
DGGD ~G3A|Bdgd egdc|Bded g2eg|1 d2gd BGGE:|2 d2gd BGG2||
gd~d2 edBd|gbaf gfef|gdBd edBG|FGAB cdef|
g2fa gdBd|gbaf gfed|Bded g2eg|1 d2gd BGG2:|2 d2gd BGGE||
